tools/download-figma-icons/icons/outlined-medium/hourglass.svg

<svg width="24" height="24" viewBox="0 0 24 24" fill="none" xmlns="http://www.w3.org/2000/svg">
<path d="M17.7075 8.565C18.36 8.0625 18.75 7.2675 18.75 6.435V4.5H19.14C19.755 4.5 20.25 3.9975 20.25 3.39V1.11C20.25 0.495 19.7475 0 19.14 0H4.86C4.2525 0 3.75 0.5025 3.75 1.11V3.3825C3.75 3.9975 4.2525 4.4925 4.86 4.4925H5.25V6.4275C5.25 7.26 5.64 8.055 6.2925 8.5575L10.77 11.9925L6.2925 15.4275C5.64 15.93 5.25 16.725 5.25 17.5575V19.4925H4.86C4.245 19.4925 3.75 19.995 3.75 20.6025V22.875C3.75 23.49 4.2525 23.985 4.86 23.985H19.14C19.755 23.985 20.25 23.4825 20.25 22.875V20.6025C20.25 19.9875 19.7475 19.4925 19.14 19.4925H18.75V17.5575C18.75 16.725 18.36 15.93 17.7075 15.4275L13.23 11.9925L17.7075 8.5575V8.565ZM5.25 1.5H18.75V3H5.25V1.5ZM18.75 22.5H5.25V21H18.75V22.5ZM17.25 17.565V19.5H6.75V17.565C6.75 17.1975 6.9225 16.845 7.2075 16.6275L12 12.9525L16.7925 16.6275C17.0775 16.845 17.25 17.1975 17.25 17.565ZM16.7925 7.38L12 11.055L7.2075 7.38C6.9225 7.1625 6.75 6.81 6.75 6.4425V4.5075H17.25V6.4425C17.25 6.81 17.0775 7.1625 16.7925 7.38Z" fill="black"/>
</svg>

<svg xmlns="http://www.w3.org/2000/svg" width="24" height="24" fill="none" viewBox="0 0 24 24"><path fill="currentColor" d="M17.708 8.565a2.7 2.7 0 0 0 1.042-2.13V4.5h.39c.615 0 1.11-.502 1.11-1.11V1.11c0-.615-.503-1.11-1.11-1.11H4.86c-.607 0-1.11.502-1.11 1.11v2.273c0 .615.503 1.11 1.11 1.11h.39v1.935c0 .832.39 1.627 1.043 2.13l4.477 3.435-4.477 3.435a2.7 2.7 0 0 0-1.043 2.13v1.935h-.39c-.615 0-1.11.502-1.11 1.11v2.272c0 .615.503 1.11 1.11 1.11h14.28c.615 0 1.11-.502 1.11-1.11v-2.273c0-.614-.503-1.11-1.11-1.11h-.39v-1.934c0-.833-.39-1.628-1.043-2.13l-4.477-3.436 4.477-3.435zM5.25 1.5h13.5V3H5.25zm13.5 21H5.25V21h13.5zm-1.5-4.935V19.5H6.75v-1.935c0-.367.173-.72.457-.937L12 12.953l4.793 3.675c.285.217.457.57.457.937M16.793 7.38 12 11.055 7.208 7.38a1.19 1.19 0 0 1-.458-.937V4.508h10.5v1.935c0 .367-.172.72-.457.937"/></svg>
